assets/images/item_44217.svg

<svg xmlns="http://www.w3.org/2000/svg" version="1.1" width="156px" height="69.3px" viewBox="0 0 156 69.3"><desc>Hollow drainage tube</desc><defs/><g id="Polygon47753"><path d="m5.5 26.3l-2.4 0c0 0 .03 5.45 0 5.5c0 .7.5 1.1 1.2 1.1c.4 0 .8-.1 1.2-.3c0 0 .1 1 .1 1c-.4.2-1 .3-1.4.3c-1.6 0-2.1-1-2.1-2.1c-.05-.05 0-5.5 0-5.5l-1.8 0l0-.9l1.8 0l0-2.4l1 0l0 2.4l2.4 0l0 .9zm9 5c0 .7.1 1.9.1 2.4c0 0-1.1 0-1.1 0c0-.6 0-1.3-.1-1.5c0 0 0 0 0 0c-.5.9-1.5 1.7-2.9 1.7c-2.6 0-3.1-1.8-3.1-3.6c-.05.01 0-4.9 0-4.9l1 0c0 0 .03 4.86 0 4.9c0 1.3.4 2.6 2.1 2.6c1.6 0 2.9-1.1 2.9-3.4c0 .02 0-4.1 0-4.1l1.1 0c0 0-.02 5.94 0 5.9zm2.7-11.2l1.1 0l0 6.7c0 0 .04.02 0 0c.7-1.1 2.1-1.7 3.4-1.7c2.5 0 4.3 1.9 4.3 4.4c0 2.6-1.8 4.4-4.3 4.4c-1.3 0-2.7-.5-3.4-1.7c.04.02 0 0 0 0l0 1.5l-1.1 0l0-13.6zm4.5 12.8c2 0 3.3-1.5 3.3-3.4c0-1.9-1.3-3.4-3.3-3.4c-2 0-3.5 1.5-3.5 3.4c0 1.9 1.5 3.4 3.5 3.4zm14.1-.8c-.9 1.3-2.2 1.8-3.6 1.8c-2.6 0-4.2-1.8-4.2-4.4c0-2.5 1.7-4.4 4.1-4.4c2.6 0 3.9 2 3.9 3.9c.02.04 0 .8 0 .8c0 0-6.97-.01-7 0c0 .9.7 3.1 3.2 3.1c1.1 0 2.2-.6 2.8-1.5c0 0 .8.7.8.7zm-.9-3.3c0-1.5-1.2-2.7-2.8-2.7c-2.4 0-3.1 2.3-3.1 2.7c0 0 5.9 0 5.9 0z" stroke="none" fill="#000"/></g><g id="Polygon47752"><path d="m1.7.9l1.2 0l0 5.7l7.2 0l0-5.7l1.1 0l0 12.8l-1.1 0l0-6.1l-7.2 0l0 6.1l-1.2 0l0-12.8zm16.5 4.2c2.6 0 4.4 1.9 4.4 4.4c0 2.6-1.8 4.4-4.4 4.4c-2.6 0-4.4-1.8-4.4-4.4c0-2.5 1.8-4.4 4.4-4.4zm0 7.8c2 0 3.3-1.5 3.3-3.4c0-1.9-1.3-3.4-3.3-3.4c-2 0-3.3 1.5-3.3 3.4c0 1.9 1.3 3.4 3.3 3.4zm6.8-12.8l1.1 0l0 13.6l-1.1 0l0-13.6zm4.1 0l1.1 0l0 13.6l-1.1 0l0-13.6zm7.9 5c2.5 0 4.3 1.9 4.3 4.4c0 2.6-1.8 4.4-4.3 4.4c-2.6 0-4.4-1.8-4.4-4.4c0-2.5 1.8-4.4 4.4-4.4zm0 7.8c2 0 3.3-1.5 3.3-3.4c0-1.9-1.3-3.4-3.3-3.4c-2.1 0-3.3 1.5-3.3 3.4c0 1.9 1.2 3.4 3.3 3.4zm5.4-7.5l1.2 0l2 6.9l.1 0l2.3-6.9l1 0l2.5 6.9l0 0l2-6.9l1 0l-2.4 8.3l-1.1 0l-2.5-6.8l0 0l-2.4 6.8l-1.1 0l-2.6-8.3zm25.8 6.8c0 0-.03.02 0 0c-.7 1.2-2.1 1.7-3.4 1.7c-2.5 0-4.3-1.8-4.3-4.4c0-2.5 1.8-4.4 4.3-4.4c1.3 0 2.7.6 3.4 1.7c-.03.02 0 0 0 0l0-6.7l1.1 0l0 13.6l-1.1 0l0-1.5zm-3.4-6.1c-2 0-3.3 1.5-3.3 3.4c0 1.9 1.3 3.4 3.3 3.4c2 0 3.5-1.5 3.5-3.4c0-1.9-1.5-3.4-3.5-3.4zm7.2 1.6c0-.6-.1-1.9-.1-2.3c0 0 1.1 0 1.1 0c0 .6 0 1.3.1 1.4c.5-1 1.4-1.7 2.6-1.7c.2 0 .4.1.6.1c0 0-.1 1.1-.1 1.1c-.2-.1-.3-.1-.4-.1c-1.9 0-2.7 1.3-2.7 2.9c-.03.04 0 4.6 0 4.6l-1.1 0c0 0-.01-6 0-6zm12.5 2.5c0 1.6 0 2.5.2 3.5c0 0-1 0-1 0c-.1-.4-.1-.9-.1-1.4c0 0-.1 0-.1 0c-.6 1.1-1.5 1.6-2.9 1.6c-1.4 0-2.9-.7-2.9-2.5c0-2.5 2.9-2.8 4.6-2.8c-.03.04 1.2 0 1.2 0c0 0 .03-.46 0-.5c0-1.4-1-2-2.3-2c-1 0-1.8.3-2.5 1c0 0-.7-.8-.7-.8c.8-.7 2.1-1.2 3.2-1.2c2 0 3.3.9 3.3 3.1c0 0 0 2 0 2zm-2.2-.7c-1.8 0-3.6.5-3.6 1.9c0 1 1 1.5 1.9 1.5c2.3 0 2.9-1.5 2.9-2.8c.03-.04 0-.6 0-.6c0 0-1.15 0-1.2 0zm5.1-4.1l1.1 0l0 8.3l-1.1 0l0-8.3zm.5-4.1c.5 0 .8.3.8.8c0 .4-.3.8-.8.8c-.4 0-.8-.4-.8-.8c0-.5.4-.8.8-.8zm3.5 6.4c0-.6-.1-1.9-.1-2.3c0 0 1.1 0 1.1 0c0 .6 0 1.3 0 1.4c0 0 .1 0 .1 0c.4-.9 1.5-1.7 2.8-1.7c2.6 0 3.2 1.8 3.2 3.6c0 .03 0 5 0 5l-1.1 0c0 0 .02-4.92 0-4.9c0-1.4-.4-2.7-2.1-2.7c-1.6 0-2.8 1.1-2.8 3.4c-.04.02 0 4.2 0 4.2l-1.1 0c0 0-.02-6 0-6zm16.2 2.5c0 1.6.1 2.5.2 3.5c0 0-1 0-1 0c-.1-.4-.1-.9-.1-1.4c0 0-.1 0-.1 0c-.6 1.1-1.5 1.6-2.9 1.6c-1.4 0-2.9-.7-2.9-2.5c0-2.5 3-2.8 4.6-2.8c0 .04 1.3 0 1.3 0c0 0-.04-.46 0-.5c0-1.4-1-2-2.4-2c-.9 0-1.8.3-2.5 1c0 0-.6-.8-.6-.8c.7-.7 2-1.2 3.1-1.2c2 0 3.3.9 3.3 3.1c0 0 0 2 0 2zm-2.1-.7c-1.8 0-3.6.5-3.6 1.9c0 1 1 1.5 1.9 1.5c2.3 0 2.9-1.5 2.9-2.8c-.04-.04 0-.6 0-.6c0 0-1.22 0-1.2 0zm13.2 3.6c0 4.2-2.8 4.9-4.5 4.9c-1.6 0-3.2-.6-4.1-1.7c0 0 .9-.8.9-.8c.7 1 1.9 1.5 3.2 1.5c3.3 0 3.4-2.9 3.4-3.8c-.02.01 0-1.1 0-1.1c0 0-.06-.04-.1 0c-.6.9-1.7 1.6-3.1 1.6c-2.5 0-4.5-1.9-4.5-4.3c0-2.3 2-4.3 4.5-4.3c1.4 0 2.5.7 3.1 1.7c.04-.03.1 0 .1 0l0-1.4l1.1 0c0 0-.04 7.74 0 7.7zm-4.4-7c-1.8 0-3.3 1.5-3.3 3.3c0 1.8 1.5 3.3 3.3 3.3c1.8 0 3.3-1.5 3.3-3.3c0-1.8-1.5-3.3-3.3-3.3zm14.4 6c-.8 1.3-2.1 1.8-3.6 1.8c-2.5 0-4.2-1.8-4.2-4.4c0-2.5 1.7-4.4 4.2-4.4c2.5 0 3.9 2 3.9 3.9c-.02.04 0 .8 0 .8c0 0-7-.01-7 0c0 .9.6 3.1 3.1 3.1c1.1 0 2.3-.6 2.8-1.5c0 0 .8.7.8.7zm-.8-3.3c0-1.5-1.3-2.7-2.9-2.7c-2.3 0-3 2.3-3 2.7c0 0 5.9 0 5.9 0z" stroke="none" fill="#000"/></g></svg>

<?xml version="1.0" standalone="no"?><!DOCTYPE svg PUBLIC "-//W3C//DTD SVG 1.1//EN" "http://www.w3.org/Graphics/SVG/1.1/DTD/svg11.dtd"><svg xmlns="http://www.w3.org/2000/svg" version="1.1" width="156px" height="69.3px" viewBox="0 0 156 69.3">  <desc>Hollow drainage tube</desc>  <defs/>  <g id="Polygon47626">    <path d="M 5.5 26.3 L 3.1 26.3 C 3.1 26.3 3.13 31.75 3.1 31.8 C 3.1 32.5 3.6 32.9 4.3 32.9 C 4.7 32.9 5.1 32.8 5.5 32.6 C 5.5 32.6 5.6 33.6 5.6 33.6 C 5.2 33.8 4.6 33.9 4.2 33.9 C 2.6 33.9 2.1 32.9 2.1 31.8 C 2.05 31.75 2.1 26.3 2.1 26.3 L 0.3 26.3 L 0.3 25.4 L 2.1 25.4 L 2.1 23 L 3.1 23 L 3.1 25.4 L 5.5 25.4 L 5.5 26.3 Z M 14.5 31.3 C 14.5 32 14.6 33.2 14.6 33.7 C 14.6 33.7 13.5 33.7 13.5 33.7 C 13.5 33.1 13.5 32.4 13.4 32.2 C 13.4 32.2 13.4 32.2 13.4 32.2 C 12.9 33.1 11.9 33.9 10.5 33.9 C 7.9 33.9 7.4 32.1 7.4 30.3 C 7.35 30.31 7.4 25.4 7.4 25.4 L 8.4 25.4 C 8.4 25.4 8.43 30.26 8.4 30.3 C 8.4 31.6 8.8 32.9 10.5 32.9 C 12.1 32.9 13.4 31.8 13.4 29.5 C 13.4 29.52 13.4 25.4 13.4 25.4 L 14.5 25.4 C 14.5 25.4 14.48 31.34 14.5 31.3 Z M 17.2 20.1 L 18.3 20.1 L 18.3 26.8 C 18.3 26.8 18.34 26.82 18.3 26.8 C 19 25.7 20.4 25.1 21.7 25.1 C 24.2 25.1 26 27 26 29.5 C 26 32.1 24.2 33.9 21.7 33.9 C 20.4 33.9 19 33.4 18.3 32.2 C 18.34 32.22 18.3 32.2 18.3 32.2 L 18.3 33.7 L 17.2 33.7 L 17.2 20.1 Z M 21.7 32.9 C 23.7 32.9 25 31.4 25 29.5 C 25 27.6 23.7 26.1 21.7 26.1 C 19.7 26.1 18.2 27.6 18.2 29.5 C 18.2 31.4 19.7 32.9 21.7 32.9 Z M 35.8 32.1 C 34.9 33.4 33.6 33.9 32.2 33.9 C 29.6 33.9 28 32.1 28 29.5 C 28 27 29.7 25.1 32.1 25.1 C 34.7 25.1 36 27.1 36 29 C 36.02 29.04 36 29.8 36 29.8 C 36 29.8 29.03 29.79 29 29.8 C 29 30.7 29.7 32.9 32.2 32.9 C 33.3 32.9 34.4 32.3 35 31.4 C 35 31.4 35.8 32.1 35.8 32.1 Z M 34.9 28.8 C 34.9 27.3 33.7 26.1 32.1 26.1 C 29.7 26.1 29 28.4 29 28.8 C 29 28.8 34.9 28.8 34.9 28.8 Z " stroke="none" fill="#000"/>  </g>  <g id="Polygon47625">    <path d="M 1.7 0.9 L 2.9 0.9 L 2.9 6.6 L 10.1 6.6 L 10.1 0.9 L 11.2 0.9 L 11.2 13.7 L 10.1 13.7 L 10.1 7.6 L 2.9 7.6 L 2.9 13.7 L 1.7 13.7 L 1.7 0.9 Z M 18.2 5.1 C 20.8 5.1 22.6 7 22.6 9.5 C 22.6 12.1 20.8 13.9 18.2 13.9 C 15.6 13.9 13.8 12.1 13.8 9.5 C 13.8 7 15.6 5.1 18.2 5.1 Z M 18.2 12.9 C 20.2 12.9 21.5 11.4 21.5 9.5 C 21.5 7.6 20.2 6.1 18.2 6.1 C 16.2 6.1 14.9 7.6 14.9 9.5 C 14.9 11.4 16.2 12.9 18.2 12.9 Z M 25 0.1 L 26.1 0.1 L 26.1 13.7 L 25 13.7 L 25 0.1 Z M 29.1 0.1 L 30.2 0.1 L 30.2 13.7 L 29.1 13.7 L 29.1 0.1 Z M 37 5.1 C 39.5 5.1 41.3 7 41.3 9.5 C 41.3 12.1 39.5 13.9 37 13.9 C 34.4 13.9 32.6 12.1 32.6 9.5 C 32.6 7 34.4 5.1 37 5.1 Z M 37 12.9 C 39 12.9 40.3 11.4 40.3 9.5 C 40.3 7.6 39 6.1 37 6.1 C 34.9 6.1 33.7 7.6 33.7 9.5 C 33.7 11.4 34.9 12.9 37 12.9 Z M 42.4 5.4 L 43.6 5.4 L 45.6 12.3 L 45.7 12.3 L 48 5.4 L 49 5.4 L 51.5 12.3 L 51.5 12.3 L 53.5 5.4 L 54.5 5.4 L 52.1 13.7 L 51 13.7 L 48.5 6.9 L 48.5 6.9 L 46.1 13.7 L 45 13.7 L 42.4 5.4 Z M 68.2 12.2 C 68.2 12.2 68.17 12.22 68.2 12.2 C 67.5 13.4 66.1 13.9 64.8 13.9 C 62.3 13.9 60.5 12.1 60.5 9.5 C 60.5 7 62.3 5.1 64.8 5.1 C 66.1 5.1 67.5 5.7 68.2 6.8 C 68.17 6.82 68.2 6.8 68.2 6.8 L 68.2 0.1 L 69.3 0.1 L 69.3 13.7 L 68.2 13.7 L 68.2 12.2 Z M 64.8 6.1 C 62.8 6.1 61.5 7.6 61.5 9.5 C 61.5 11.4 62.8 12.9 64.8 12.9 C 66.8 12.9 68.3 11.4 68.3 9.5 C 68.3 7.6 66.8 6.1 64.8 6.1 Z M 72 7.7 C 72 7.1 71.9 5.8 71.9 5.4 C 71.9 5.4 73 5.4 73 5.4 C 73 6 73 6.7 73.1 6.8 C 73.6 5.8 74.5 5.1 75.7 5.1 C 75.9 5.1 76.1 5.2 76.3 5.2 C 76.3 5.2 76.2 6.3 76.2 6.3 C 76 6.2 75.9 6.2 75.8 6.2 C 73.9 6.2 73.1 7.5 73.1 9.1 C 73.07 9.14 73.1 13.7 73.1 13.7 L 72 13.7 C 72 13.7 71.99 7.7 72 7.7 Z M 84.5 10.2 C 84.5 11.8 84.5 12.7 84.7 13.7 C 84.7 13.7 83.7 13.7 83.7 13.7 C 83.6 13.3 83.6 12.8 83.6 12.3 C 83.6 12.3 83.5 12.3 83.5 12.3 C 82.9 13.4 82 13.9 80.6 13.9 C 79.2 13.9 77.7 13.2 77.7 11.4 C 77.7 8.9 80.6 8.6 82.3 8.6 C 82.27 8.64 83.5 8.6 83.5 8.6 C 83.5 8.6 83.53 8.14 83.5 8.1 C 83.5 6.7 82.5 6.1 81.2 6.1 C 80.2 6.1 79.4 6.4 78.7 7.1 C 78.7 7.1 78 6.3 78 6.3 C 78.8 5.6 80.1 5.1 81.2 5.1 C 83.2 5.1 84.5 6 84.5 8.2 C 84.5 8.2 84.5 10.2 84.5 10.2 Z M 82.3 9.5 C 80.5 9.5 78.7 10 78.7 11.4 C 78.7 12.4 79.7 12.9 80.6 12.9 C 82.9 12.9 83.5 11.4 83.5 10.1 C 83.53 10.06 83.5 9.5 83.5 9.5 C 83.5 9.5 82.35 9.5 82.3 9.5 Z M 87.4 5.4 L 88.5 5.4 L 88.5 13.7 L 87.4 13.7 L 87.4 5.4 Z M 87.9 1.3 C 88.4 1.3 88.7 1.6 88.7 2.1 C 88.7 2.5 88.4 2.9 87.9 2.9 C 87.5 2.9 87.1 2.5 87.1 2.1 C 87.1 1.6 87.5 1.3 87.9 1.3 Z M 91.4 7.7 C 91.4 7.1 91.3 5.8 91.3 5.4 C 91.3 5.4 92.4 5.4 92.4 5.4 C 92.4 6 92.4 6.7 92.4 6.8 C 92.4 6.8 92.5 6.8 92.5 6.8 C 92.9 5.9 94 5.1 95.3 5.1 C 97.9 5.1 98.5 6.9 98.5 8.7 C 98.5 8.73 98.5 13.7 98.5 13.7 L 97.4 13.7 C 97.4 13.7 97.42 8.78 97.4 8.8 C 97.4 7.4 97 6.1 95.3 6.1 C 93.7 6.1 92.5 7.2 92.5 9.5 C 92.46 9.52 92.5 13.7 92.5 13.7 L 91.4 13.7 C 91.4 13.7 91.38 7.7 91.4 7.7 Z M 107.6 10.2 C 107.6 11.8 107.7 12.7 107.8 13.7 C 107.8 13.7 106.8 13.7 106.8 13.7 C 106.7 13.3 106.7 12.8 106.7 12.3 C 106.7 12.3 106.6 12.3 106.6 12.3 C 106 13.4 105.1 13.9 103.7 13.9 C 102.3 13.9 100.8 13.2 100.8 11.4 C 100.8 8.9 103.8 8.6 105.4 8.6 C 105.4 8.64 106.7 8.6 106.7 8.6 C 106.7 8.6 106.66 8.14 106.7 8.1 C 106.7 6.7 105.7 6.1 104.3 6.1 C 103.4 6.1 102.5 6.4 101.8 7.1 C 101.8 7.1 101.2 6.3 101.2 6.3 C 101.9 5.6 103.2 5.1 104.3 5.1 C 106.3 5.1 107.6 6 107.6 8.2 C 107.6 8.2 107.6 10.2 107.6 10.2 Z M 105.5 9.5 C 103.7 9.5 101.9 10 101.9 11.4 C 101.9 12.4 102.9 12.9 103.8 12.9 C 106.1 12.9 106.7 11.4 106.7 10.1 C 106.66 10.06 106.7 9.5 106.7 9.5 C 106.7 9.5 105.48 9.5 105.5 9.5 Z M 118.7 13.1 C 118.7 17.3 115.9 18 114.2 18 C 112.6 18 111 17.4 110.1 16.3 C 110.1 16.3 111 15.5 111 15.5 C 111.7 16.5 112.9 17 114.2 17 C 117.5 17 117.6 14.1 117.6 13.2 C 117.58 13.21 117.6 12.1 117.6 12.1 C 117.6 12.1 117.54 12.06 117.5 12.1 C 116.9 13 115.8 13.7 114.4 13.7 C 111.9 13.7 109.9 11.8 109.9 9.4 C 109.9 7.1 111.9 5.1 114.4 5.1 C 115.8 5.1 116.9 5.8 117.5 6.8 C 117.54 6.77 117.6 6.8 117.6 6.8 L 117.6 5.4 L 118.7 5.4 C 118.7 5.4 118.66 13.14 118.7 13.1 Z M 114.3 6.1 C 112.5 6.1 111 7.6 111 9.4 C 111 11.2 112.5 12.7 114.3 12.7 C 116.1 12.7 117.6 11.2 117.6 9.4 C 117.6 7.6 116.1 6.1 114.3 6.1 Z M 128.7 12.1 C 127.9 13.4 126.6 13.9 125.1 13.9 C 122.6 13.9 120.9 12.1 120.9 9.5 C 120.9 7 122.6 5.1 125.1 5.1 C 127.6 5.1 129 7.1 129 9 C 128.98 9.04 129 9.8 129 9.8 C 129 9.8 122 9.79 122 9.8 C 122 10.7 122.6 12.9 125.1 12.9 C 126.2 12.9 127.4 12.3 127.9 11.4 C 127.9 11.4 128.7 12.1 128.7 12.1 Z M 127.9 8.8 C 127.9 7.3 126.6 6.1 125 6.1 C 122.7 6.1 122 8.4 122 8.8 C 122 8.8 127.9 8.8 127.9 8.8 Z " stroke="none" fill="#000"/>  </g></svg>
